X:1
T:Title
L:1/8
Q:1/4=110
M:4/4
K:Bb
V:1 treble nm="Church Organ, Staff"
V:1
 F2 G2- G/ z/ F B2 | d2 c2- c/ z/ B A2 | G2 F2- F/ z/ F G2 | D2 F6 | F2 D2- D/ z/ F B2 | %5
w: By~Henry~Gadsby * * * *|||||
 d2 c2- c/ z/ B A2 | G2 F2- F/ z/ F G2- | GF F6 | F2 G2 D2 F2 | B2 B2- B/ z/ A A2 | %10
w: |||||
 G2 F2- F/ z/ G A2 | B2 c6 | A2 G2- G/ z/ A B2 | c2 d2 d2 e2 | e2 f2- f/ z/ d B2 | B2 B4 A2- | %16
w: ||||||
 A2 B6 |] %17
w: |

